small/extra/status/standard/xfpm-brightness-lcd-invalid.svg

<?xml version="1.0" encoding="UTF-8" standalone="no"?>
<svg
   xmlns:dc="http://purl.org/dc/elements/1.1/"
   xmlns:cc="http://creativecommons.org/ns#"
   xmlns:rdf="http://www.w3.org/1999/02/22-rdf-syntax-ns#"
   xmlns:svg="http://www.w3.org/2000/svg"
   xmlns="http://www.w3.org/2000/svg"
   xmlns:xlink="http://www.w3.org/1999/xlink"
   id="svg2"
   viewBox="0 0 512 512"
   height="100%"
   width="100%"
   version="1.1">
  <metadata
     id="metadata106">
    <rdf:RDF>
      <cc:Work
         rdf:about="">
        <dc:format>image/svg+xml</dc:format>
        <dc:type
           rdf:resource="http://purl.org/dc/dcmitype/StillImage" />
        <dc:title />
      </cc:Work>
    </rdf:RDF>
  </metadata>
  <defs
     id="defs104">
    <filter
       id="filter3174"
       color-interpolation-filters="sRGB">
      <feGaussianBlur
         id="feGaussianBlur3176"
         stdDeviation="1.71" />
    </filter>
    <linearGradient
       id="ButtonShadow"
       y2="7.0165"
       gradientUnits="userSpaceOnUse"
       x2="45.448"
       gradientTransform="scale(1.0059,0.99417)"
       y1="92.54"
       x1="45.448">
      <stop
         id="stop3750-1"
         offset="0" />
      <stop
         id="stop3752-6"
         style="stop-opacity:.58824"
         offset="1" />
    </linearGradient>
    <filter
       id="filter3174-2"
       color-interpolation-filters="sRGB">
      <feGaussianBlur
         id="feGaussianBlur3176-6"
         stdDeviation="1.71" />
    </filter>
    <linearGradient
       y2="7.0165"
       x2="45.448"
       y1="92.54"
       x1="45.448"
       gradientTransform="scale(1.0059,0.99417)"
       gradientUnits="userSpaceOnUse"
       id="linearGradient62873"
       xlink:href="#ButtonShadow" />
    <filter
       color-interpolation-filters="sRGB"
       id="filter3174-6">
      <feGaussianBlur
         stdDeviation="1.71"
         id="feGaussianBlur3176-5" />
    </filter>
    <linearGradient
       y2="7.0165"
       x2="45.448"
       y1="92.54"
       x1="45.448"
       gradientTransform="scale(1.0059,0.99417)"
       gradientUnits="userSpaceOnUse"
       id="linearGradient83486"
       xlink:href="#ButtonShadow" />
    <filter
       id="filter3174-1"
       color-interpolation-filters="sRGB">
      <feGaussianBlur
         id="feGaussianBlur3176-4"
         stdDeviation="1.71" />
    </filter>
    <linearGradient
       y2="7.0165"
       x2="45.448"
       y1="92.54"
       x1="45.448"
       gradientTransform="scale(1.0059,0.99417)"
       gradientUnits="userSpaceOnUse"
       id="linearGradient90210"
       xlink:href="#ButtonShadow" />
    <filter
       color-interpolation-filters="sRGB"
       id="filter3174-7">
      <feGaussianBlur
         stdDeviation="1.71"
         id="feGaussianBlur3176-60" />
    </filter>
    <linearGradient
       y2="7.0165"
       x2="45.448"
       y1="92.54"
       x1="45.448"
       gradientTransform="scale(1.0059,0.99417)"
       gradientUnits="userSpaceOnUse"
       id="linearGradient96921"
       xlink:href="#ButtonShadow" />
    <linearGradient
       id="ButtonShadow-4"
       gradientTransform="scale(1.0058652,0.994169)"
       x1="45.447727"
       y1="92.539597"
       x2="45.447727"
       y2="7.0165396"
       gradientUnits="userSpaceOnUse">
      <stop
         style="stop-color:#000000;stop-opacity:1;"
         offset="0"
         id="stop3750" />
      <stop
         style="stop-color:#000000;stop-opacity:0.58823532;"
         offset="1"
         id="stop3752" />
    </linearGradient>
    <filter
       id="filter3174-0">
      <feGaussianBlur
         stdDeviation="1.71"
         id="feGaussianBlur3176-41" />
    </filter>
    <linearGradient
       y2="7.0165396"
       x2="45.447727"
       y1="92.539597"
       x1="45.447727"
       gradientTransform="scale(1.0058652,0.994169)"
       gradientUnits="userSpaceOnUse"
       id="linearGradient6345"
       xlink:href="#ButtonShadow-4" />
    <filter
       id="filter3174-9">
      <feGaussianBlur
         stdDeviation="1.71"
         id="feGaussianBlur3176-1" />
    </filter>
    <linearGradient
       y2="7.0165396"
       x2="45.447727"
       y1="92.539597"
       x1="45.447727"
       gradientTransform="scale(1.0058652,0.994169)"
       gradientUnits="userSpaceOnUse"
       id="linearGradient6345-7"
       xlink:href="#ButtonShadow-4" />
    <filter
       id="filter3174-94">
      <feGaussianBlur
         stdDeviation="1.71"
         id="feGaussianBlur3176-8" />
    </filter>
    <linearGradient
       y2="7.0165396"
       x2="45.447727"
       y1="92.539597"
       x1="45.447727"
       gradientTransform="scale(1.0058652,0.994169)"
       gradientUnits="userSpaceOnUse"
       id="linearGradient6345-6"
       xlink:href="#ButtonShadow-4" />
    <filter
       color-interpolation-filters="sRGB"
       id="filter3174-4">
      <feGaussianBlur
         stdDeviation="1.71"
         id="feGaussianBlur3176-2" />
    </filter>
    <linearGradient
       y2="7.0165"
       x2="45.448"
       y1="92.54"
       x1="45.448"
       gradientTransform="scale(1.0059,0.99417)"
       gradientUnits="userSpaceOnUse"
       id="linearGradient107043"
       xlink:href="#ButtonShadow" />
  </defs>
  <g
     id="layer2"
     style="display:none"
     transform="matrix(6.7274189,0,0,6.7274189,-1328.8681,-712.41656)">
    <rect
       id="rect3745"
       style="opacity:0.9;fill:url(#ButtonShadow);filter:url(#filter3174)"
       rx="6"
       ry="6"
       height="85"
       width="86"
       y="7"
       x="5" />
  </g>
  <g
     id="layer2-1"
     style="display:none"
     transform="matrix(6.7274189,0,0,6.7274189,-1522.6492,-780.80988)">
    <rect
       id="rect3745-0"
       style="opacity:0.9;fill:url(#linearGradient62873);filter:url(#filter3174-2)"
       rx="6"
       ry="6"
       height="85"
       width="86"
       y="7"
       x="5" />
  </g>
  <g
     transform="matrix(6.7274189,0,0,6.7274189,-1470.2509,-672.7018)"
     style="display:none"
     id="layer2-4">
    <rect
       x="5"
       y="7"
       width="86"
       height="85"
       ry="6"
       rx="6"
       style="opacity:0.9;fill:url(#linearGradient83486);filter:url(#filter3174-6)"
       id="rect3745-4" />
  </g>
  <g
     id="layer2-9"
     style="display:none"
     transform="matrix(6.7274189,0,0,6.7274189,-1342.1668,-799.80803)">
    <rect
       id="rect3745-1"
       style="opacity:0.9;fill:url(#linearGradient90210);filter:url(#filter3174-1)"
       rx="6"
       ry="6"
       height="85"
       width="86"
       y="7"
       x="5" />
  </g>
  <g
     transform="matrix(6.7274189,0,0,6.7274189,-1429.5583,-733.31302)"
     style="display:none"
     id="layer2-5">
    <rect
       x="5"
       y="7"
       width="86"
       height="85"
       ry="6"
       rx="6"
       style="opacity:0.9;fill:url(#linearGradient96921);filter:url(#filter3174-7)"
       id="rect3745-14" />
  </g>
  <g
     transform="matrix(4.4306853,0,0,4.4306853,-1091.8904,5.309015)"
     style="display:none"
     id="layer2-0">
    <rect
       ry="6"
       rx="6"
       y="7"
       x="5"
       height="85"
       width="86"
       id="rect3745-11"
       style="opacity:0.9;fill:url(#linearGradient6345);fill-opacity:1;fill-rule:nonzero;stroke:none;filter:url(#filter3174-0)" />
  </g>
  <g
     transform="matrix(4.4306853,0,0,4.4306853,-1169.7828,28.106788)"
     style="display:none"
     id="layer2-8">
    <rect
       ry="6"
       rx="6"
       y="7"
       x="5"
       height="85"
       width="86"
       id="rect3745-09"
       style="opacity:0.9;fill:url(#linearGradient6345-7);fill-opacity:1;fill-rule:nonzero;stroke:none;filter:url(#filter3174-9)" />
  </g>
  <g
     transform="matrix(4.4306853,0,0,4.4306853,-1205.8793,73.702332)"
     style="display:none"
     id="layer2-96">
    <rect
       ry="6"
       rx="6"
       y="7"
       x="5"
       height="85"
       width="86"
       id="rect3745-5"
       style="opacity:0.9;fill:url(#linearGradient6345-6);fill-opacity:1;fill-rule:nonzero;stroke:none;filter:url(#filter3174-94)" />
  </g>
  <g
     transform="matrix(6.7274189,0,0,6.7274189,-1387.7624,-714.31638)"
     style="display:none"
     id="layer2-55">
    <rect
       x="5"
       y="7"
       width="86"
       height="85"
       ry="6"
       rx="6"
       style="opacity:0.9;fill:url(#linearGradient107043);filter:url(#filter3174-4)"
       id="rect3745-6" />
  </g>
  <path
     d="M 26,0 C 11.60265,0 0,11.60265 0,26 l 0,460 c 0,14.39735 11.60265,26 26,26 l 460,0 c 14.39735,0 26,-11.60265 26,-26 L 512,26 C 512,11.60265 500.39735,0 486,0 L 26,0 Z"
     id="rect2986"
     style="fill:#cd1d31;fill-opacity:1;stroke:none" />
  <path
     id="path3090"
     d="m 255.99988,41 -63,62.99999 -89,0 0,89 -62.99999,63 62.99999,63 0,89 104,104 278,0 c 14.39735,0 26,-11.60265 26,-26 l 0,-278 -104,-104 -89,0 -63,-62.99999 z"
     style="color:#000000;visibility:visible;opacity:0.25;fill:#000000;fill-opacity:1;fill-rule:evenodd;stroke:none;stroke-width:1px;marker:none" />
  <path
     id="path3085"
     d="m 256,41 -63,63 -89,0 0,89 -63,63 63,63 0,89 89,0 63,63 63,-63 89,0 0,-89 63,-63 -63,-63 0,-89 -89,0 -63,-63 z m 0.65625,81.6875 c 16.63921,-0.23123 31.65608,10.28744 36.0625,26.53125 6.47293,24.09937 -1.05522,49.58848 -9.09375,72.4375 -8.9681,22.37591 -14.32596,45.95264 -17,69.875 l -21.21875,0 c -1.85831,-13.50432 -3.51537,-26.9785 -7,-40.15625 -8.56351,-29.12896 -23.38607,-57.74355 -21.375,-88.96875 0.93023,-20.0559 16.99075,-39.73445 38,-39.65625 0.5398,-0.03 1.08825,-0.055 1.625,-0.0625 z m 0.0625,199.65625 c 15.24151,0.21566 29.2262,11.9593 31.9375,27.03125 4.12992,18.11261 -9.37903,37.79501 -27.96875,39.5625 -17.80793,3.20863 -36.5106,-9.75099 -38.59375,-27.875 -3.49817,-19.00273 12.34329,-38.34977 31.5625,-38.59375 1.0243,-0.0904 2.0464,-0.13938 3.0625,-0.125 z"
     style="color:#000000;display:inline;overflow:visible;visibility:visible;fill:#ffffff;fill-opacity:1;fill-rule:evenodd;stroke:none;stroke-width:1px;marker:none;enable-background:accumulate" />
</svg>

<?xml version="1.0" encoding="UTF-8" standalone="no"?>
<!-- Created with Inkscape (http://www.inkscape.org/) -->

<svg
   xmlns:dc="http://purl.org/dc/elements/1.1/"
   xmlns:cc="http://creativecommons.org/ns#"
   xmlns:rdf="http://www.w3.org/1999/02/22-rdf-syntax-ns#"
   xmlns:svg="http://www.w3.org/2000/svg"
   xmlns="http://www.w3.org/2000/svg"
   xmlns:sodipodi="http://sodipodi.sourceforge.net/DTD/sodipodi-0.dtd"
   xmlns:inkscape="http://www.inkscape.org/namespaces/inkscape"
   version="1.1"
   width="100%"
   height="100%"
   viewBox="0 0 512 512"
   id="svg2"
   inkscape:version="0.48.5 r10040"
   sodipodi:docname="xfpm-brightness-lcd-invalid.svg">
  <sodipodi:namedview
     pagecolor="#ffffff"
     bordercolor="#666666"
     borderopacity="1"
     objecttolerance="10"
     gridtolerance="10"
     guidetolerance="10"
     inkscape:pageopacity="0"
     inkscape:pageshadow="2"
     inkscape:window-width="1307"
     inkscape:window-height="748"
     id="namedview59"
     showgrid="false"
     inkscape:zoom="0.23046875"
     inkscape:cx="-341.28113"
     inkscape:cy="-109.00843"
     inkscape:window-x="57"
     inkscape:window-y="-3"
     inkscape:window-maximized="1"
     inkscape:current-layer="svg2" />
  <metadata
     id="metadata10">
    <rdf:RDF>
      <cc:Work
         rdf:about="">
        <dc:format>image/svg+xml</dc:format>
        <dc:type
           rdf:resource="http://purl.org/dc/dcmitype/StillImage" />
        <dc:title />
      </cc:Work>
    </rdf:RDF>
  </metadata>
  <defs
     id="defs8">
    <clipPath
       clipPathUnits="userSpaceOnUse"
       id="clipPath3214">
      <path
         d="M 26,0 C 11.602648,0 0,11.602648 0,26 l 0,460 c 0,14.39735 11.602648,26 26,26 l 460,0 c 14.39735,0 26,-11.60265 26,-26 L 512,26 C 512,11.602648 500.39735,0 486,0 L 26,0 z"
         inkscape:connector-curvature="0"
         id="path3216"
         style="fill:#68af4c;fill-opacity:1;stroke:none" />
    </clipPath>
  </defs>
  <path
     style="fill:#cd1d31;fill-opacity:1;stroke:none"
     id="rect2986"
     inkscape:connector-curvature="0"
     d="M 26,0 C 11.602648,0 0,11.602648 0,26 l 0,460 c 0,14.39735 11.602648,26 26,26 l 460,0 c 14.39735,0 26,-11.60265 26,-26 L 512,26 C 512,11.602648 500.39735,0 486,0 L 26,0 z" />
  <text
     style="font-size:129.22999573px;line-height:125%;letter-spacing:0;word-spacing:0;font-family:Gentium Book Basic"
     id="text11"
     y="-40.703033"
     x="-945.18243">
    <tspan
       id="tspan13"
       y="-40.703033"
       x="-945.18243" />
  </text>
  <text
     style="font-size:46.95375824px;text-anchor:middle;font-family:Arial"
     id="text15"
     transform="scale(4.0128205,0.24920128)"
     y="-512.49493"
     x="-38.464146" />
  <text
     style="font-size:129.22999573px;line-height:125%;letter-spacing:0;word-spacing:0;font-family:Gentium Book Basic"
     id="text17"
     y="-120.70502"
     x="-363.91238">
    <tspan
       id="tspan19"
       y="-120.70502"
       x="-363.91238" />
  </text>
  <text
     style="font-size:46.95375824px;text-anchor:middle;font-family:Arial"
     id="text21"
     transform="scale(4.0128205,0.24920128)"
     y="-833.51331"
     x="106.3851" />
  <text
     style="font-size:129.22999573px;line-height:125%;letter-spacing:0;word-spacing:0;font-family:Gentium Book Basic"
     id="text23"
     y="-301.96503"
     x="-1435.4924">
    <tspan
       id="tspan25"
       y="-301.96503"
       x="-1435.4924" />
  </text>
  <text
     style="font-size:46.95375824px;text-anchor:middle;font-family:Arial"
     id="text27"
     transform="scale(4.0128205,0.24920128)"
     y="-1560.8696"
     x="-160.64853" />
  <text
     style="font-size:129.22999573px;line-height:125%;letter-spacing:0;word-spacing:0;font-family:Gentium Book Basic"
     id="text29"
     y="-518.435"
     x="-337.44238">
    <tspan
       id="tspan31"
       y="-518.435"
       x="-337.44238" />
  </text>
  <text
     style="font-size:46.95375824px;text-anchor:middle;font-family:Arial"
     id="text33"
     transform="scale(4.0128205,0.24920128)"
     y="-2429.5352"
     x="112.98508" />
  <text
     style="font-size:129.22999573px;line-height:125%;letter-spacing:0;word-spacing:0;font-family:Gentium Book Basic"
     id="text35"
     y="-598.44501"
     x="243.82756">
    <tspan
       id="tspan37"
       y="-598.44501"
       x="243.82756" />
  </text>
  <text
     style="font-size:46.95375824px;text-anchor:middle;font-family:Arial"
     id="text39"
     transform="scale(4.0128205,0.24920128)"
     y="-2750.5635"
     x="257.83435" />
  <text
     style="font-size:129.22999573px;line-height:125%;letter-spacing:0;word-spacing:0;font-family:Gentium Book Basic"
     id="text41"
     y="-1070.845"
     x="-145.29243">
    <tspan
       id="tspan43"
       y="-1070.845"
       x="-145.29243" />
  </text>
  <text
     style="font-size:46.95375824px;text-anchor:middle;font-family:Arial"
     id="text45"
     transform="scale(4.0128205,0.24920128)"
     y="-4646.2036"
     x="160.86484" />
  <text
     style="font-size:129.22999573px;line-height:125%;letter-spacing:0;word-spacing:0;font-family:Gentium Book Basic"
     id="text47"
     y="-1150.845"
     x="435.96765">
    <tspan
       id="tspan49"
       y="-1150.845"
       x="435.96765" />
  </text>
  <text
     style="font-size:46.95375824px;text-anchor:middle;font-family:Arial"
     id="text51"
     transform="scale(4.0128205,0.24920128)"
     y="-4967.2324"
     x="305.71411" />
  <text
     style="font-size:208.33000183px;line-height:125%;letter-spacing:0;word-spacing:0;font-family:Gentium Book Basic"
     id="text53"
     y="263.87497"
     x="-1396.8324">
    <tspan
       id="tspan55"
       y="263.87497"
       x="-1396.8324" />
  </text>
  <g
     style="color:#000000;fill:#000000;fill-opacity:1;fill-rule:evenodd;stroke:none;stroke-width:1px;marker:none;visibility:visible;display:inline;overflow:visible;enable-background:accumulate;opacity:0.25"
     id="g3088"
     clip-path="url(#clipPath3214)">
    <path
       inkscape:connector-curvature="0"
       d="m 256,41 -63,63 388.90873,388.90873 63,-63 z"
       id="path3090"
       style="fill:#000000" />
    <path
       inkscape:connector-curvature="0"
       d="m 193,104 -89,0 388.90873,388.90873 89,0 z"
       id="path3092"
       style="fill:#000000" />
    <path
       inkscape:connector-curvature="0"
       d="m 104,104 0,89 388.90873,388.90873 0,-89 z"
       id="path3094"
       style="fill:#000000" />
    <path
       inkscape:connector-curvature="0"
       d="m 104,193 -63,63 388.90873,388.90873 63,-63 z"
       id="path3096"
       style="fill:#000000" />
    <path
       inkscape:connector-curvature="0"
       d="m 41,256 63,63 388.90873,388.90873 -63,-63 z"
       id="path3098"
       style="fill:#000000" />
    <path
       inkscape:connector-curvature="0"
       d="m 104,319 0,89 388.90873,388.90873 0,-89 z"
       id="path3100"
       style="fill:#000000" />
    <path
       inkscape:connector-curvature="0"
       d="m 104,408 89,0 388.90873,388.90873 -89,0 z"
       id="path3102"
       style="fill:#000000" />
    <path
       inkscape:connector-curvature="0"
       d="m 193,408 63,63 388.90873,388.90873 -63,-63 z"
       id="path3104"
       style="fill:#000000" />
    <path
       inkscape:connector-curvature="0"
       d="m 256,471 63,-63 388.90873,388.90873 -63,63 z"
       id="path3106"
       style="fill:#000000" />
    <path
       inkscape:connector-curvature="0"
       d="m 319,408 89,0 388.90873,388.90873 -89,0 z"
       id="path3108"
       style="fill:#000000" />
    <path
       inkscape:connector-curvature="0"
       d="m 408,408 0,-89 388.90873,388.90873 0,89 z"
       id="path3110"
       style="fill:#000000" />
    <path
       inkscape:connector-curvature="0"
       d="m 408,319 63,-63 388.90873,388.90873 -63,63 z"
       id="path3112"
       style="fill:#000000" />
    <path
       inkscape:connector-curvature="0"
       d="m 471,256 -63,-63 388.90873,388.90873 63,63 z"
       id="path3114"
       style="fill:#000000" />
    <path
       inkscape:connector-curvature="0"
       d="m 408,193 0,-89 388.90873,388.90873 0,89 z"
       id="path3116"
       style="fill:#000000" />
    <path
       inkscape:connector-curvature="0"
       d="m 408,104 -89,0 388.90873,388.90873 89,0 z"
       id="path3118"
       style="fill:#000000" />
    <path
       inkscape:connector-curvature="0"
       d="m 319,104 -63,-63 388.90873,388.90873 63,63 z"
       id="path3120"
       style="fill:#000000" />
    <path
       inkscape:connector-curvature="0"
       d="m 255.5,127.84375 c 0.16676,-6.4e-4 0.33309,0 0.5,0 l 388.90873,388.90873 c -0.16691,0 -0.33324,-6.4e-4 -0.5,0 z"
       id="path3122"
       style="fill:#000000" />
    <path
       inkscape:connector-curvature="0"
       d="m 256,127.84375 c 35.38884,0 67.4279,14.34464 90.61975,37.53649 l 388.90873,388.90873 c -23.19185,-23.19185 -55.23091,-37.53649 -90.61975,-37.53649 z"
       id="path3124"
       style="fill:#000000" />
    <path
       inkscape:connector-curvature="0"
       d="m 346.61975,165.38024 c 23.19186,23.19186 37.5365,55.23092 37.5365,90.61976 l 388.90873,388.90873 c 0,-35.38884 -14.34464,-67.4279 -37.5365,-90.61976 z"
       id="path3126"
       style="fill:#000000" />
    <path
       inkscape:connector-curvature="0"
       d="m 384.15625,256 c 0,70.77768 -57.37857,128.15625 -128.15625,128.15625 l 388.90873,388.90873 c 70.77768,0 128.15625,-57.37857 128.15625,-128.15625 z"
       id="path3128"
       style="fill:#000000" />
    <path
       inkscape:connector-curvature="0"
       d="m 256,384.15625 c -0.16691,0 -0.33324,6.4e-4 -0.5,0 l 388.90873,388.90873 c 0.16676,6.4e-4 0.33309,0 0.5,0 z"
       id="path3130"
       style="fill:#000000" />
    <path
       inkscape:connector-curvature="0"
       d="m 255.5,384.15625 0,-256.3125 388.90873,388.90873 0,256.3125 z"
       id="path3132"
       style="fill:#000000" />
  </g>
  <path
     style="color:#000000;fill:#ffffff;fill-opacity:1;fill-rule:evenodd;stroke:none;stroke-width:1px;marker:none;visibility:visible;display:inline;overflow:visible;enable-background:accumulate"
     d="M 256 41 L 193 104 L 104 104 L 104 193 L 41 256 L 104 319 L 104 408 L 193 408 L 256 471 L 319 408 L 408 408 L 408 319 L 471 256 L 408 193 L 408 104 L 319 104 L 256 41 z M 256.65625 122.6875 C 273.29546 122.45627 288.31233 132.97494 292.71875 149.21875 C 299.19168 173.31812 291.66353 198.80723 283.625 221.65625 C 274.6569 244.03216 269.29904 267.60889 266.625 291.53125 L 245.40625 291.53125 C 243.54794 278.02693 241.89088 264.55275 238.40625 251.375 C 229.84274 222.24604 215.02018 193.63145 217.03125 162.40625 C 217.96148 142.35035 234.022 122.6718 255.03125 122.75 C 255.57105 122.72001 256.1195 122.69496 256.65625 122.6875 z M 256.71875 322.34375 C 271.96026 322.55941 285.94495 334.30305 288.65625 349.375 C 292.78617 367.48761 279.27722 387.17001 260.6875 388.9375 C 242.87957 392.14613 224.1769 379.18651 222.09375 361.0625 C 218.59558 342.05977 234.43704 322.71273 253.65625 322.46875 C 254.68055 322.37834 255.70265 322.32937 256.71875 322.34375 z "
     id="path3085" />
</svg>
